svgs/sharp-light/list-radio.svg

<svg xmlns="http://www.w3.org/2000/svg" viewBox="0 0 512 512"><!--! Font Awesome Pro 6.6.0 by @fontawesome - https://fontawesome.com License - https://fontawesome.com/license (Commercial License) Copyright 2024 Fonticons, Inc. --><path d="M32 96a32 32 0 1 1 64 0A32 32 0 1 1 32 96zm96 0A64 64 0 1 0 0 96a64 64 0 1 0 128 0zm64-16l0 32 16 0 288 0 16 0 0-32-16 0L208 80l-16 0zm0 160l0 32 16 0 288 0 16 0 0-32-16 0-288 0-16 0zm0 160l0 32 16 0 288 0 16 0 0-32-16 0-288 0-16 0zM64 288a32 32 0 1 1 0-64 32 32 0 1 1 0 64zm0-96a64 64 0 1 0 0 128 64 64 0 1 0 0-128zM80 96A16 16 0 1 0 48 96a16 16 0 1 0 32 0zM32 416a32 32 0 1 1 64 0 32 32 0 1 1 -64 0zm96 0A64 64 0 1 0 0 416a64 64 0 1 0 128 0z"/></svg>

<svg xmlns="http://www.w3.org/2000/svg" viewBox="0 0 512 512"><!--! Font Awesome Pro 6.5.2 by @fontawesome - https://fontawesome.com License - https://fontawesome.com/license (Commercial License) Copyright 2024 Fonticons, Inc. --><path d="M32 96a32 32 0 1 1 64 0A32 32 0 1 1 32 96zm96 0A64 64 0 1 0 0 96a64 64 0 1 0 128 0zm64-16v32h16H496h16V80H496 208 192zm0 160v32h16H496h16V240H496 208 192zm0 160v32h16H496h16V400H496 208 192zM64 288a32 32 0 1 1 0-64 32 32 0 1 1 0 64zm0-96a64 64 0 1 0 0 128 64 64 0 1 0 0-128zM80 96A16 16 0 1 0 48 96a16 16 0 1 0 32 0zM32 416a32 32 0 1 1 64 0 32 32 0 1 1 -64 0zm96 0A64 64 0 1 0 0 416a64 64 0 1 0 128 0z"/></svg>
